resources/svg/github-o.svg

<svg width="15" height="15" viewBox="0 0 15 15" fill="none" xmlns="http://www.w3.org/2000/svg">
<path d="M5.65021 12.4769C5.9136 12.3939 6.05986 12.1132 5.9769 11.8498C5.89394 11.5864 5.61317 11.4401 5.34979 11.5231L5.65021 12.4769ZM2.00197 9.51639L1.51836 9.38942L1.26442 10.3566L1.74803 10.4836L2.00197 9.51639ZM9 14.5V15H10V14.5H9ZM9.0625 9.6875L9.00906 9.19036C8.81734 9.21097 8.65455 9.33999 8.5907 9.52194C8.52686 9.70389 8.57333 9.90634 8.71013 10.0422L9.0625 9.6875ZM12.5 5.9125H13L13 5.91089L12.5 5.9125ZM11.6669 3.90625L11.2008 3.72524C11.1291 3.90974 11.1731 4.11914 11.3128 4.2593L11.6669 3.90625ZM11.6169 1.88937L12.0734 1.68549C12.0132 1.55057 11.8963 1.44921 11.7542 1.40861L11.6169 1.88937ZM9.44438 2.68125L9.31826 3.16508C9.45382 3.20042 9.59799 3.17726 9.71566 3.10125L9.44438 2.68125ZM5.55562 2.68125L5.28442 3.1013C5.40208 3.17727 5.54621 3.20041 5.68174 3.16508L5.55562 2.68125ZM3.38313 1.88937L3.24564 1.40865C3.10362 1.44926 2.98682 1.55061 2.92658 1.68549L3.38313 1.88937ZM3.33313 3.90625L3.68715 4.25933C3.82693 4.11917 3.87087 3.90975 3.79921 3.72524L3.33313 3.90625ZM2.5 5.92875H3L3 5.92747L2.5 5.92875ZM5.9375 9.6875L6.29045 10.0417C6.42616 9.9064 6.47265 9.7055 6.41015 9.52439C6.34765 9.34328 6.18715 9.21381 5.99691 9.19104L5.9375 9.6875ZM5.5 11H6C6 10.9878 5.99955 10.9756 5.99866 10.9634L5.5 11ZM5 14.5V15H6V14.5H5ZM5.34979 11.5231C4.74678 11.713 4.3643 11.6918 4.11084 11.6082C3.85886 11.525 3.66567 11.3578 3.4814 11.1175C3.38808 10.9959 3.3021 10.8623 3.21181 10.7161C3.12597 10.5771 3.02879 10.4142 2.93047 10.2692C2.73966 9.9878 2.45815 9.63616 2.00197 9.51639L1.74803 10.4836C1.82748 10.5045 1.93206 10.5786 2.10281 10.8304C2.18527 10.952 2.26274 11.0825 2.36104 11.2417C2.4549 11.3936 2.56254 11.5627 2.68797 11.7262C2.9412 12.0563 3.28599 12.389 3.79744 12.5578C4.30742 12.7261 4.91384 12.7088 5.65021 12.4769L5.34979 11.5231ZM10 10.9375C10 10.6201 9.98611 10.3301 9.89602 10.0596C9.8001 9.77159 9.63428 9.55071 9.41487 9.33276L8.71013 10.0422C8.8651 10.1962 8.91802 10.2878 8.94726 10.3756C8.98232 10.4809 9 10.6299 9 10.9375H10ZM9.11594 10.1846C10.0189 10.0876 11.004 9.85986 11.7626 9.20319C12.5429 8.52773 13 7.47445 13 5.9125H12C12 7.2718 11.6105 8.01226 11.1081 8.44712C10.5841 8.90076 9.8505 9.09992 9.00906 9.19036L9.11594 10.1846ZM13 5.91089C12.9971 5.02667 12.6453 4.17934 12.0209 3.5532L11.3128 4.2593C11.751 4.69877 11.998 5.29349 12 5.91411L13 5.91089ZM12.133 4.08726C12.2823 3.70286 12.3539 3.29267 12.3436 2.88041L11.3439 2.9052C11.3509 3.18532 11.3022 3.46404 11.2008 3.72524L12.133 4.08726ZM12.3436 2.88041C12.3334 2.46816 12.2416 2.06202 12.0734 1.68549L11.1603 2.09326C11.2746 2.34911 11.337 2.62508 11.3439 2.9052L12.3436 2.88041ZM11.6169 1.88937C11.7542 1.40861 11.7538 1.40848 11.7533 1.40834C11.7531 1.4083 11.7527 1.40816 11.7523 1.40807C11.7517 1.40789 11.751 1.40771 11.7504 1.40752C11.749 1.40716 11.7477 1.40678 11.7462 1.4064C11.7434 1.40564 11.7404 1.40485 11.7372 1.40405C11.7309 1.40245 11.7239 1.40078 11.7161 1.39909C11.7007 1.39571 11.6826 1.39225 11.6617 1.38904C11.6199 1.38261 11.5674 1.37725 11.504 1.37556C11.3769 1.37216 11.2079 1.38354 10.9947 1.42908C10.5691 1.52001 9.97001 1.7465 9.17309 2.26125L9.71566 3.10125C10.435 2.63663 10.9221 2.46717 11.2037 2.40701C11.3441 2.37701 11.434 2.37404 11.4773 2.3752C11.4991 2.37578 11.5097 2.37742 11.5097 2.37742C11.5098 2.37743 11.5072 2.37704 11.5021 2.37592C11.4996 2.37537 11.4964 2.37463 11.4927 2.37368C11.4908 2.3732 11.4887 2.37267 11.4865 2.37209C11.4854 2.37179 11.4843 2.37148 11.4831 2.37116C11.4826 2.37099 11.482 2.37083 11.4814 2.37066C11.4811 2.37057 11.4806 2.37044 11.4804 2.3704C11.48 2.37027 11.4795 2.37014 11.6169 1.88937ZM9.57049 2.19742C8.21284 1.84354 6.78716 1.84354 5.42951 2.19742L5.68174 3.16508C6.87399 2.85431 8.12601 2.85431 9.31826 3.16508L9.57049 2.19742ZM5.82683 2.2612C5.02965 1.74649 4.43054 1.52002 4.00504 1.42909C3.79191 1.38354 3.62298 1.37216 3.49591 1.37556C3.4325 1.37725 3.38003 1.38261 3.33822 1.38905C3.31734 1.39226 3.2992 1.39573 3.28376 1.39911C3.27604 1.4008 3.26901 1.40247 3.26266 1.40408C3.25948 1.40488 3.25647 1.40567 3.25364 1.40643C3.25222 1.40681 3.25085 1.40719 3.24951 1.40756C3.24885 1.40774 3.24819 1.40793 3.24755 1.40811C3.24722 1.4082 3.24675 1.40833 3.24659 1.40838C3.24611 1.40851 3.24564 1.40865 3.38313 1.88937C3.52061 2.3701 3.52014 2.37023 3.51968 2.37037C3.51953 2.37041 3.51907 2.37054 3.51876 2.37062C3.51816 2.3708 3.51756 2.37096 3.51698 2.37112C3.51581 2.37145 3.51467 2.37176 3.51357 2.37206C3.51138 2.37265 3.50934 2.37318 3.50745 2.37365C3.50367 2.37461 3.5005 2.37535 3.49795 2.3759C3.49286 2.37702 3.49028 2.37742 3.49029 2.37742C3.4903 2.37741 3.49295 2.37701 3.49829 2.37653C3.50363 2.37605 3.51172 2.37549 3.52262 2.3752C3.56589 2.37405 3.65567 2.377 3.79606 2.40701C4.07758 2.46717 4.56473 2.63664 5.28442 3.1013L5.82683 2.2612ZM2.92658 1.68549C2.75843 2.06202 2.66658 2.46816 2.65636 2.88041L3.65606 2.9052C3.663 2.62508 3.72541 2.34911 3.83967 2.09326L2.92658 1.68549ZM2.65636 2.88041C2.64614 3.29267 2.71775 3.70286 2.86704 4.08726L3.79921 3.72524C3.69777 3.46404 3.64911 3.18532 3.65606 2.9052L2.65636 2.88041ZM2.9791 3.55317C2.66761 3.8655 2.42079 4.23621 2.25278 4.64407L3.1774 5.02495C3.29532 4.7387 3.46854 4.47853 3.68715 4.25933L2.9791 3.55317ZM2.25278 4.64407C2.08477 5.05193 1.99887 5.48892 2 5.93003L3 5.92747C2.99921 5.61789 3.05949 5.31119 3.1774 5.02495L2.25278 4.64407ZM2 5.92875C2 7.48166 2.45806 8.52573 3.23874 9.19657C3.99602 9.84729 4.97941 10.0764 5.87809 10.184L5.99691 9.19104C5.15121 9.08984 4.41586 8.88958 3.89048 8.43812C3.3885 8.00677 3 7.27584 3 5.92875H2ZM5.58455 9.33335C5.08499 9.83121 4.95633 10.4236 5.00134 11.0366L5.99866 10.9634C5.96867 10.5551 6.05126 10.28 6.29045 10.0417L5.58455 9.33335ZM5 11V14.5H6V11H5ZM10 14.5V13H9V14.5H10ZM10 13V10.9375H9V13H10Z" fill="black"/>
</svg>

<svg viewBox="0 0 15 15" fill="none" xmlns="http://www.w3.org/2000/svg" fill="currentColor"><path d="M5.65 12.477a.5.5 0 10-.3-.954l.3.954zm-3.648-2.96l-.484-.128-.254.968.484.127.254-.968zM9 14.5v.5h1v-.5H9zm.063-4.813l-.054-.497a.5.5 0 00-.299.852l.352-.354zM12.5 5.913h.5V5.91l-.5.002zm-.833-2.007l-.466-.18a.5.5 0 00.112.533l.354-.353zm-.05-2.017l.456-.204a.5.5 0 00-.319-.276l-.137.48zm-2.173.792l-.126.484a.5.5 0 00.398-.064l-.272-.42zm-3.888 0l-.272.42a.5.5 0 00.398.064l-.126-.484zM3.383 1.89l-.137-.48a.5.5 0 00-.32.276l.457.204zm-.05 2.017l.354.353a.5.5 0 00.112-.534l-.466.181zM2.5 5.93H3v-.002l-.5.002zm3.438 3.758l.352.355a.5.5 0 00-.293-.851l-.06.496zM5.5 11H6l-.001-.037L5.5 11zM5 14.5v.5h1v-.5H5zm.35-2.977c-.603.19-.986.169-1.24.085-.251-.083-.444-.25-.629-.49a4.8 4.8 0 01-.27-.402c-.085-.139-.182-.302-.28-.447-.191-.281-.473-.633-.929-.753l-.254.968c.08.02.184.095.355.346.082.122.16.252.258.412.094.152.202.32.327.484.253.33.598.663 1.11.832.51.168 1.116.15 1.852-.081l-.3-.954zm4.65-.585c0-.318-.014-.608-.104-.878-.096-.288-.262-.51-.481-.727l-.705.71c.155.153.208.245.237.333.035.105.053.254.053.562h1zm-.884-.753c.903-.097 1.888-.325 2.647-.982.78-.675 1.237-1.729 1.237-3.29h-1c0 1.359-.39 2.1-.892 2.534-.524.454-1.258.653-2.099.743l.107.995zM13 5.91a3.354 3.354 0 00-.98-2.358l-.707.706c.438.44.685 1.034.687 1.655l1-.003zm-.867-1.824c.15-.384.22-.794.21-1.207l-1 .025a2.12 2.12 0 01-.142.82l.932.362zm.21-1.207a3.119 3.119 0 00-.27-1.195l-.913.408c.115.256.177.532.184.812l1-.025zm-.726-.99c.137-.481.137-.482.136-.482h-.003l-.004-.002a.462.462 0 00-.03-.007 1.261 1.261 0 00-.212-.024 2.172 2.172 0 00-.51.054c-.425.091-1.024.317-1.82.832l.542.84c.719-.464 1.206-.634 1.488-.694a1.2 1.2 0 01.306-.03l-.008-.001a.278.278 0 01-.01-.002l-.006-.002h-.003l-.002-.001c-.001 0-.002 0 .136-.482zm-2.047.307a8.209 8.209 0 00-4.14 0l.252.968a7.209 7.209 0 013.636 0l.252-.968zm-3.743.064c-.797-.514-1.397-.74-1.822-.83a2.17 2.17 0 00-.51-.053 1.259 1.259 0 00-.241.03l-.004.002h-.003l.136.481.137.481h-.001l-.002.001-.003.001a.327.327 0 01-.016.004l-.008.001h.008a1.19 1.19 0 01.298.03c.282.06.769.23 1.488.694l.543-.84zm-2.9-.576a3.12 3.12 0 00-.27 1.195l1 .025a2.09 2.09 0 01.183-.812l-.913-.408zm-.27 1.195c-.01.413.06.823.21 1.207l.932-.362a2.12 2.12 0 01-.143-.82l-1-.025zm.322.673a3.354 3.354 0 00-.726 1.091l.924.38c.118-.285.292-.545.51-.765l-.708-.706zm-.726 1.091A3.354 3.354 0 002 5.93l1-.003c0-.31.06-.616.177-.902l-.924-.38zM2 5.93c0 1.553.458 2.597 1.239 3.268.757.65 1.74.88 2.64.987l.118-.993C5.15 9.09 4.416 8.89 3.89 8.438 3.388 8.007 3 7.276 3 5.928H2zm3.585 3.404c-.5.498-.629 1.09-.584 1.704L6 10.963c-.03-.408.052-.683.291-.921l-.705-.709zM5 11v3.5h1V11H5zm5 3.5V13H9v1.5h1zm0-1.5v-2.063H9V13h1z" fill="currentColor"/></svg>
